X:1
T:Title
%%score ( 1 2 ) { 3 | 4 }
L:1/8
Q:1/4=90
M:4/4
K:Ab
V:1 treble nm="Grand Piano, Soprano"
V:2 treble 
V:3 bass nm="Grand Piano, Bass"
V:4 bass 
V:1
 z4 z2 z [Ec] | [Ec]2 [CA][DB] [Ec]3 [_Ge] | ed[FA][=EB] [_Ec]2 [CE]2 | [DF]2 [DF][EG] [EA]3 [Ec] | %4
w: 1.~Is~|God~ call ing~ thee,~ O~|guilt * y~ * sin ner?�~|Sa tan~ has~ long~ on~|
 [EB]2 [=DF]2 [EB]3 [Ec] | [Ec]2 [CA][DB] [Ec]3 [_Ge] | ed[FA][=EB] [_Ec]2 [CE]2 | %7
w: thee~ im posed�~ Or~|has~ the~ * Spir it~|gone~ * for * ev er?~|
 [DF]2 [EG][=DA] [Ec]3 [EA] | GAFG E4 | [Ec]4 [CA][CE][DF][CE] | [EA]2 [EB]2 [Ec]4 | %11
w: Is~ thy~ heart's~ door~ a|gainst~ * Him~ * closed.~|||
 [Ae]4 [Ec][EA][EB][EA] | [EG]2 [=DF]2 EC _D2 | [Ec]3 [Ec] [DB]2 [CA]2 | [Fd]3 [Fd] [Ec]2 [EB]2 | %15
w: ||||
 [Ee]6 [EA][FB] | c-[Ec-][Ec-][Ac] B2- [EB]2 | A6 z2 |] %18
w: |||
V:2
 x8 | x8 | F2 z2 z4 | x8 | x8 | x8 | F2 z2 z4 | x8 | E2 =D2 z4 | x8 | x8 | x8 | x8 | x8 | x8 | x8 | %16
 .E2 z2 G2 z2 | EE F2 E2 z2 |] %18
V:3
 z4 z2 z A, | A,2 A,A, A,3 A, | A,2 A,2 A,2 A,2 | A,2 A,B, C3 A, | B,2 B,2 G,3 A, | %5
 A,2 A,A, A,3 A, | A,2 A,2 A,2 A,2 | A,2 A,A, A,3 C | B,2 A,F, G,4 | A,2 A,A, A,2 A,A, | %10
 A,2 G,2 A,4 | C2 CC A,CDC | B,2 A,2 G,A, B,2 | A,C, .E,2 A,D, .E,2 | A,F, .A,2 A,F, .G,2 | %15
 C2 CC C2 A,[K:bass]A, | A,A,A,C[K:treble] E2 D2 | CC D2 C2 z2 |] %18
V:4
 z4 z2 z A,, | A,,2 A,,A,, A,,3 C, | D,2 D,2 A,,2 A,,2 | D,2 D,B,, A,,4 | G,2 F,2 E,3 A,, | %5
 A,,2 A,,A,, A,,3 C, | D,2 D,2 A,,2 A,,2 | D,2 C,B,, A,,3 A,, | B,,2 B,,2 E,4 | %9
 A,,2 A,,A,, A,,2 A,,A,, | C,2 E,2 z4 | A,2 A,A, z2 G,A, | z2 B,,2 E,4 | .A,,2 z2 .A,,2 z2 | %14
 .D,2 z2 .E,2 z2 | A,2 A,A, A,2 C,D, | E,4 E,4 | A,,6 z2 |] %18

